svgs/solid/truck-container.svg

<svg xmlns="http://www.w3.org/2000/svg" viewBox="0 0 640 512"><!--! Font Awesome Pro 6.4.2 by @fontawesome - https://fontawesome.com License - https://fontawesome.com/license (Commercial License) Copyright 2023 Fonticons, Inc. --><path d="M48 32H352c26.5 0 48 21.5 48 48V240c0 26.5-21.5 48-48 48H48c-26.5 0-48-21.5-48-48V80C0 53.5 21.5 32 48 32zM80 80c-8.8 0-16 7.2-16 16V224c0 8.8 7.2 16 16 16s16-7.2 16-16V96c0-8.8-7.2-16-16-16zM224 96V224c0 8.8 7.2 16 16 16s16-7.2 16-16V96c0-8.8-7.2-16-16-16s-16 7.2-16 16zM160 80c-8.8 0-16 7.2-16 16V224c0 8.8 7.2 16 16 16s16-7.2 16-16V96c0-8.8-7.2-16-16-16zM304 96V224c0 8.8 7.2 16 16 16s16-7.2 16-16V96c0-8.8-7.2-16-16-16s-16 7.2-16 16zm128 72c0-13.3 10.7-24 24-24h72.8c16.8 0 32.7 7.5 43.3 20.5L631 236.4c5.8 7.1 9 16.1 9 25.3V272v16 64c0 17.7-14.3 32-32 32h-1.6c1 5.2 1.6 10.5 1.6 16c0 44.2-35.8 80-80 80s-80-35.8-80-80c0-5.5 .6-10.8 1.6-16H432 286.4c1 5.2 1.6 10.5 1.6 16c0 44.2-35.8 80-80 80c-26.2 0-49.4-12.6-64-32c-14.6 19.4-37.8 32-64 32c-44.2 0-80-35.8-80-80V384 352c0-17.7 14.3-32 32-32H80 208 432V288 256 168zm48 88H585l-50-61.1c-1.5-1.9-3.8-2.9-6.2-2.9H480v64zm80 144a32 32 0 1 0 -64 0 32 32 0 1 0 64 0zM208 432a32 32 0 1 0 0-64 32 32 0 1 0 0 64zm-96-32a32 32 0 1 0 -64 0 32 32 0 1 0 64 0z"/></svg>

<svg xmlns="http://www.w3.org/2000/svg" viewBox="0 0 640 512"><!--! Font Awesome Pro 6.1.1 by @fontawesome - https://fontawesome.com License - https://fontawesome.com/license (Commercial License) Copyright 2022 Fonticons, Inc. --><path d="M352 32C378.5 32 400 53.49 400 80V240C400 266.5 378.5 288 352 288H48C21.49 288 0 266.5 0 240V80C0 53.49 21.49 32 48 32H352zM80 80C71.16 80 64 87.16 64 96V224C64 232.8 71.16 240 80 240C88.84 240 96 232.8 96 224V96C96 87.16 88.84 80 80 80zM224 224C224 232.8 231.2 240 240 240C248.8 240 256 232.8 256 224V96C256 87.16 248.8 80 240 80C231.2 80 224 87.16 224 96V224zM160 80C151.2 80 144 87.16 144 96V224C144 232.8 151.2 240 160 240C168.8 240 176 232.8 176 224V96C176 87.16 168.8 80 160 80zM304 224C304 232.8 311.2 240 320 240C328.8 240 336 232.8 336 224V96C336 87.16 328.8 80 320 80C311.2 80 304 87.16 304 96V224zM432 168C432 154.7 442.7 144 456 144H528.8C545.6 144 561.5 151.5 572.2 164.5L630.1 236.4C636.8 243.5 640 252.5 640 261.7V352C640 369.7 625.7 384 608 384H606.4C607.4 389.2 608 394.5 608 400C608 444.2 572.2 480 528 480C483.8 480 448 444.2 448 400C448 394.5 448.6 389.2 449.6 384H286.4C287.4 389.2 288 394.5 288 400C288 444.2 252.2 480 208 480C181.8 480 158.6 467.4 144 448C129.4 467.4 106.2 480 80 480C35.82 480 0 444.2 0 400V352C0 334.3 14.33 320 32 320H432V168zM480 256H584.1L535 194.9C533.5 193.1 531.2 192 528.8 192H480V256zM528 368C510.3 368 496 382.3 496 400C496 417.7 510.3 432 528 432C545.7 432 560 417.7 560 400C560 382.3 545.7 368 528 368zM208 432C225.7 432 240 417.7 240 400C240 382.3 225.7 368 208 368C190.3 368 176 382.3 176 400C176 417.7 190.3 432 208 432zM80 368C62.33 368 48 382.3 48 400C48 417.7 62.33 432 80 432C97.67 432 112 417.7 112 400C112 382.3 97.67 368 80 368z"/></svg>
